public/images/java.svg

<svg xmlns="http://www.w3.org/2000/svg" height="512" width="512" xmlns:v="https://vecta.io/nano"><path d="M333.283 307.117c8.807-6.02 21.023-11.23 21.023-11.23s-34.768 6.29-69.357 9.165c-42.315 3.503-87.775 4.221-110.595 1.167-53.996-7.187 29.647-27.044 29.647-27.044s-32.433-2.154-72.413 17.07c-47.166 22.821 116.795 33.242 201.695 10.872z" fill="#5382a1"/><path d="M256.56 278.277c-17.07-38.362-74.659-72.054 0-130.99C349.727 73.797 301.93 26 301.93 26c19.316 75.917-67.92 98.917-99.456 146.084-21.473 32.253 10.512 66.843 54.086 106.193zm102.958-158.302c.09 0-157.403 39.351-82.205 125.958 22.191 25.516-5.84 48.516-5.84 48.516s56.332-29.108 30.457-65.495c-24.168-33.961-42.676-50.851 57.588-108.979z" fill="#f8981d"/><path d="M354.039 362.999c-.449 1.078-1.797 2.247-1.797 2.336 115.266-30.277 72.861-106.824 17.787-87.416-4.852 1.707-7.365 5.66-7.365 5.66s3.053-1.259 9.883-2.696c27.849-5.839 67.83 37.285-18.508 82.116h0zm42.404 55.972s13.027 10.692-14.285 19.047c-52.018 15.722-216.339 20.483-261.979.63-16.441-7.099 14.374-17.072 24.078-19.137 10.061-2.157 15.901-1.799 15.901-1.799-18.238-12.847-117.963 25.247-50.671 36.119 183.458 29.826 334.574-13.388 286.956-34.86h0zm-200.886-37.195c-70.706 19.766 43.035 60.555 133.055 22.011-14.732-5.748-25.334-12.397-25.334-12.397-40.16 7.637-58.756 8.175-95.233 4.043-30.097-3.414-12.488-13.657-12.488-13.657h0zm161.535 87.327c-70.705 13.296-157.941 11.771-209.602 3.233 0-.088 10.602 8.716 65.046 12.22 82.834 5.302 210.051-2.966 213.016-42.136.001 0-5.749 14.825-68.46 26.683h0zm-39.17-125.959c-53.188 10.243-84.003 9.973-122.904 5.93-30.098-3.145-10.422-17.698-10.422-17.698-77.982 25.874 43.304 55.164 152.281 23.269-11.588-4.044-18.955-11.501-18.955-11.501z" fill="#5382a1"/></svg>

<?xml version="1.0" ?><!DOCTYPE svg  PUBLIC '-//W3C//DTD SVG 1.1//EN'  'http://www.w3.org/Graphics/SVG/1.1/DTD/svg11.dtd'><svg height="512px" style="enable-background:new 0 0 512 512;" version="1.1" viewBox="0 0 512 512" width="512px" xml:space="preserve" xmlns="http://www.w3.org/2000/svg" xmlns:xlink="http://www.w3.org/1999/xlink"><g id="_x31_81-java"><g><path d="M333.283,307.117c8.807-6.02,21.023-11.23,21.023-11.23s-34.768,6.29-69.357,9.165    c-42.315,3.503-87.775,4.221-110.595,1.167c-53.996-7.187,29.647-27.044,29.647-27.044s-32.433-2.154-72.413,17.07    C84.422,319.066,248.383,329.487,333.283,307.117z" style="fill:#5382A1;"/><path d="M256.56,278.277c-17.07-38.362-74.659-72.054,0-130.99C349.727,73.797,301.93,26,301.93,26    c19.316,75.917-67.92,98.917-99.456,146.084C181.001,204.337,212.986,238.927,256.56,278.277z" style="fill:#F8981D;"/><path d="M359.518,119.975c0.09,0-157.403,39.351-82.205,125.958c22.191,25.516-5.84,48.516-5.84,48.516    s56.332-29.108,30.457-65.495C277.762,194.993,259.254,178.103,359.518,119.975z" style="fill:#F8981D;"/><path d="M354.039,362.999c-0.449,1.078-1.797,2.247-1.797,2.336    c115.266-30.277,72.861-106.824,17.787-87.416c-4.852,1.707-7.365,5.66-7.365,5.66s3.053-1.259,9.883-2.696    C400.396,275.044,440.377,318.168,354.039,362.999L354.039,362.999z" style="fill:#5382A1;"/><path d="M396.443,418.971c0,0,13.027,10.692-14.285,19.047c-52.018,15.722-216.339,20.483-261.979,0.63    c-16.441-7.099,14.374-17.072,24.078-19.137c10.061-2.157,15.901-1.799,15.901-1.799c-18.238-12.847-117.963,25.247-50.671,36.119    C292.945,483.657,444.061,440.443,396.443,418.971L396.443,418.971z" style="fill:#5382A1;"/><path d="M195.557,381.776c-70.706,19.766,43.035,60.555,133.055,22.011    c-14.732-5.748-25.334-12.397-25.334-12.397c-40.16,7.637-58.756,8.175-95.233,4.043    C177.948,392.019,195.557,381.776,195.557,381.776L195.557,381.776z" style="fill:#5382A1;"/><path d="M357.092,469.103c-70.705,13.296-157.941,11.771-209.602,3.233c0-0.088,10.602,8.716,65.046,12.22    c82.834,5.302,210.051-2.966,213.016-42.136C425.553,442.42,419.803,457.245,357.092,469.103L357.092,469.103z" style="fill:#5382A1;"/><path d="M317.922,343.144c-53.188,10.243-84.003,9.973-122.904,5.93    c-30.098-3.145-10.422-17.698-10.422-17.698c-77.982,25.874,43.304,55.164,152.281,23.269    C325.289,350.601,317.922,343.144,317.922,343.144z" style="fill:#5382A1;"/></g></g><g id="Layer_1"/></svg>
